!!!COM: bastion-soundtrack
!!!OTL: zulfs-theme
!!!RNB: hooktheoryid: knJmBVAWmAV
**kern	**text
*clefG2	*
*k[b-e-a-]	*
*M4/4	*
=1	=1
4r	Cm
4ee-	.
8ee-	.
8dd	.
4cc	.
=2	=2
4r	Fm
8.a-	.
16g	.
16a-	.
16b-	.
8a-	.
8a-	.
8g	.
=3	=3
4r	Eb
4g	.
8f	.
4g	.
[8g-	.
=4	=4
4g-]	D
4d	.
4c	.
4r	.
=5	=5
4r	Cm
4ee-	.
8ee-	.
8dd	.
4cc	.
=6	=6
4r	Fm
8.a-	.
16g	.
16a-	.
16b-	.
8a-	.
8a-	.
8g	.
=7	=7
4r	Eb
4g	.
8f	.
4g	.
[8g-	.
=8	=8
4g-]	D
4g	.
4a	.
4r	.
*-	*-